X:1
T:A Mighty Victor
T:A Mighty Victor
T:Charles Hutchinson Gabriel
T:Effie Stevens, 1909
T:Public Domain Courtesy of the Cyber Hymnal™
T:Public Domain Courtesy of the Cyber Hymnal™
C:Charles Hutchinson Gabriel
Z:Public Domain
Z:Courtesy of the Cyber Hymnal™
%%score ( 1 2 ) ( 3 4 )
L:1/8
Q:1/4=112
M:4/4
K:C
V:1 treble 
V:2 treble 
V:3 bass 
V:4 bass 
V:1
 G2 | [Ec]2 [Ec]2 [Ec]2 [Ec]2 | [Ec]2 [CE]4 [CE]2 | [EG]2 [EA]2 [EG]2 [EA]2 | G6 z2 G2 | %5
w: 1.~A|vic- tor, might- y|vic- tor, The|Lord of Heav’n a-|rose, From|
w: 2.~A|vic- tor, might- y|vic- tor, Christ|rose that East- er|day; ’Twas|
w: 3.~A|vic- tor, might- y|vic- tor, The|Lord of Heav’n a-|rose, That|
 [FB]2 [FB]2 [FB]2 [FB]2 | [FB]2 [B,F]4 [B,FG]2 | [FA]2 [FB]2 [FA]2 [FB]2 | [EG]6 G2 | %9
w: death’s en- dur- ing|pris- on, Tri-|umph- ant o’er His|foes; He|
w: all for us He|suf- fered, That|we might learn His|way; He|
w: we, too, might be|ris- en Tri-|umph- ant o’er earth’s|woes; So|
 [Ec]2 [Ec]2 [Ec]2 [Ec]2 | [Ec]2 E4 C2 | [FA]2 [FA]2 [GA]2 [GA]2 | A6 z2 A2 | %13
w: rose to life and|glo- ry, That|He might ban- ish|fear From|
w: rose to fill with|glad- ness Each|ach- ing, sin- ful|heart, He|
w: let us join in|sing- ing Our|praise to Christ, whose|love Pre-|
 [DGd]2 [DGd]2 [D^Fcd]2 [DFcd]2 | [DBd]2 [DGB]4 G2 | [D^FA]2 [DFAd]2 [DFA]2 [DFAd]2 | [B,DG]6 || %17
w: * ev- ery heart|that, lov- ing,|Draws to His pre-|sence|
w: * rose to com-|fort sor- row,|To bid des- pair|de-|
w: * pares for us|a dwell- ing|With Him in Heav’n|a-|
"^Refrain" G2 | [df]2 [ce]2 [Bd]2 [Ac]2 | ([GB]3 [FA]) [EG]2 [DF]2 | [CE]2 [EG]2 [Gc]2 [Gd]2 | %21
w: near.||||
w: part.|A vic- tor, might-|y * vic- tor,|Our Lord a- rose|
w: bove.||||
 [Ge]6 [EG]2 | [FA]2 [GB]2 [Gc]2 [Gd]2 | (e2 c2) [FA]2 [^Fd]2 | [GB]2 G2 [^FA]2 [=FB]2 | [Ec]6 |] %26
w: |||||
w: this day;|That He might lead|us * on- ward,|With- in His bless-|èd|
w: |||||
V:2
 G2 | x8 | x8 | x8 | (E4 G4) x2 | x8 | x8 | x8 | x6 G2 | x8 | x2 E4 C2 | x8 | F4 [D^F]4 x2 | x8 | %14
 x6 G2 | x8 | x6 || G2 | x8 | x8 | x8 | x8 | x8 | G4 x4 | x2 G2 x4 | x6 |] %26
V:3
 G,2 | [C,G,]4 [G,,G,]4 | [C,G,]4 [G,,G,]4 | [C,C]4 [G,,C]4 | [C,C]4 [E,C]4 x2 | [D,G,]4 [G,,G,]4 | %6
 [D,G,]4 [G,,G,]4 | [B,,G,]4 [G,,G,]4 | (C,2 C2 G,2) E,2 | [C,G,]4 [G,,G,]4 | [C,G,]4 [E,C]4 | %11
 [F,C]4 [E,^C]4 | [D,D]4 [C,C]4 x2 | [B,,B,]4 [A,,A,]4 | [G,,G,]4 B,,4 | [D,C]4 [D,C]4 | %16
 (G,2 D,2 G,,2) || G,2 | G,2 G,2 G,2 G,2 | [G,D]4 G,2 G,2 | [C,G,]2 [C,C]2 [E,C]2 [G,B,]2 | %21
 C6 [C,C]2 | [F,C]2 [D,D]2 [E,C]2 [G,B,]2 | C4 [F,C]2 [D,C]2 | [G,D]2 [G,B,]2 [G,C]2 [G,D]2 | %25
 [C,G,C]6 |] %26
V:4
 x2 | x8 | x8 | x8 | x10 | x8 | x8 | x8 | x8 | x8 | x8 | x8 | x10 | x8 | x8 | x8 | x6 || G,2 | %18
 G,2 G,2 G,2 G,2 | x4 G,2 G,2 | x8 | C6 x2 | x8 | (C2 E,2) x4 | x8 | x6 |] %26

